X:264
T:To God Be The Glory
%%stretchlast false
M:3/4
L:1/4
K:F clef=C1
"^I"[F,FAc] [F,FAc] "^I¹"[A,Fc] | "^V"[CEBd]/ "^V7"[CBe]/ "^I"[F,CAf] [F,FAc] | "^I¹"[A,Ccf] "^V"[CEcg] "^V7"[CEBc] | "^V"[CEcg] "^I"[F,Fca]2 | [F,Fca] "^IV"[B,Fdb] [B,FBd] | [B,Fcb] "^I"[F,Fca] "^I¹"[A,Fcf] | "^I"[F,Fca] "^II"[G,D=Ba] "^ii"[G,DBg] | [G,GBd]/ "^ii7"[G,FBd]/ "^V"[CEcg]2 | "^V7"[CEBc] "^I"[F,FAc] "^I¹"[A,Fc] | "^V"[CEBd]/ "^V7"[CBe]/ "^I"[F,CAf] [F,FAc] | "^I¹"[A,Fcf] "^V"[CEcg] [CEc] | [CEcg] "^I"[F,Fca]2 | [F,F_ea] "^IV"[B,Fdc'] "^ii¹"[B,Gdb] | [B,Bdg] "^I²"[CAcf] "^V"[CGce] | "^I²"[CAcf] [CFca] [CFca] | "^V7"[CEBg] "^I"[F,FAf]2 | [Fca]3/4 "^ii"[FGcb]/4 "^I"[FAcc']2 | [Ffa]3/4 "^vii°7³"[F,Geb]/4 "^I"[FAfc']2 | [FAcc']3/4 [F,Fca]/4 "^I¹"[A,Fcf] "^V²"[G,Ecg] | "^I"[F,Fca] "^V"[CEcg]2 | [CEcg]3/4 "^I²"[CFca]/4 "^v7"[CGcb]2 | "^V"[CEcg]3/4 "^I²"[CFca]/4 "^v7"[CGcb]2 | [CGcb]/ "^V"[B,Ecf]/ "^I¹"[A,Fcc'] [A,Fcc'] | "^V7²"[G,Ecb] "^I"[F,Fca]2 | "^V7"[CEBc] "^I"[F,FAc] "^I¹"[A,Fc] | "^V"[CEBd]/ "^V7"[CBe]/ "^I"[F,CAf] [F,FAc] | "^I¹"[A,Fcf] "^V"[CEcg] [CEc] | [CEcg] "^I"[F,Fca]2 | [F,F_ea] "^IV"[B,Fdc'] "^ii¹"[B,Gdb] | [B,Bdg] "^I²"[CAcf] "^V"[CGce] | "^I²"[CAcf] [CFca] [CFca] | "^V7"[CEBg] "^I"[F,FAf]2 |]
